X:1
T:Title
L:1/8
M:4/4
K:Ab
V:1 treble nm="Grand Piano"
V:1
 z4 z[Q:1/4=100] CFG | A2 A2- A B2 A | G4- GA=EF | G2 BB- B A2 G | F4- F=AAB | c3 e- e d2 c | %6
 B4- BGGA | B2 G2- G B2 d | c4- ccBA | GF=ED C E2 G | F4- Fccc | c2 d2- d B2 A | G4- GBBB | %13
 B2 G2- G B2 d | c4- cccc | c2 d2- d B2 A | G4- GBBB | B2 G2- G B2 d | c4- cddc | %19
 dc/d/ cB- B c2 B | cB/c/ BA- ABAG | F=EDC- C E2 G | FGAB cddc | dc/d/ cB- B c2 B | %24
 cB/c/ BA- ABAG | F=EDC- C E2 G | F6 z2 |] %27

